X: 4
T: Family Vacation by Noah Vannostrand
R: reel
Q:1/2=110
M: 4/4
L: 1/8
K: Dmaj
x8||:"D"d3 d B2 A2|F2 A2 A4|d3 d B2 A2|F2 "A"A2 E4|
"D"d3 d B2 A2|F2 A2 A4|"G"B3 B A2 F2|"A"E2 F2 "D"D4:||
||:"D"D3 D E2 DE|F2 A2 A4|"D"D3 D E2 DE|F2 A2 "A"E4|
"D"D3 D E2 DE|F2 A2 A4|"G"B3 B A2 F2|"A"E2 F2 "D"D4:||